!!!!SEGMENT: pl-kk--kk-i-7--037_maxylewicz-wincenty--tollite-portas.krn
!!!cenid: 16xx:836
!!!COM: Maxylewicz, Wincenty
!!!COM-rism: pe30105799
!!!CDT: ~1685-1745/01/24
!!!CNT: Polish
!!!OTL: Tollite portas
!!!PDT:
!!!AGN: Sacred
!!!SMS-siglum: PL-Kk
!!!SMS-shelfmark: Kk.I.7
!!!NIFC-rismID: 300258114
!!!URL-scan: http://repozytorium.nifc.pl/skany/pl-kk-nut--i-7
!!!ONB-nifc: UWAGA: C (skan 0035, s.64-65), A (0120, s.60), T(0196, s.56), B(0286, s.58). Następny utwór: Alleluia Ave Maria
!!!SMS-variant:
!!!SMS-altvar:
**kern	**text	**kern	**text	**kern	**text	**kern	**text
*part4	*part4	*part3	*part3	*part2	*part2	*part1	*part1
*staff4	*staff4	*staff3	*staff3	*staff2	*staff2	*staff1	*staff1
*I"Basso	*	*I"Tenore	*	*I"Alto	*	*I"Canto	*
*clefF4	*	*clefC4	*	*clefC3	*	*clefC1	*
*k[b-]	*	*k[b-]	*	*k[b-]	*	*k[b-]	*
*M2/2	*	*M2/2	*	*M2/2	*	*M2/2	*
*met(c|)	*	*met(c|)	*	*met(c|)	*	*met(c|)	*
=1	=1	=1	=1	=1	=1	=1	=1
!LO:TX:t=P:problem:zdwojony znak przykluczowy	!	!	!	!	!	!	!
!LO:TX:a:B:t=allabreve lentè.	!	!	!	!LO:TX:a:t=Graduale per annum	!	!LO:TX:a:B:t=Lento	!
!LO:TX:a:t=Graduale\nper\nannum	!	!LO:TX:a:t=Graduale per annum.	!	!LO:TX:a:t=1.	!	!LO:TX:a:t=Graduale\nper\nannum	!
0r	.	00r	.	1r	.	4.f/	To-
.	.	.	.	.	.	8f/	-li-
.	.	.	.	.	.	2f/	-te
=2	=2	=2	=2	=2	=2	=2	=2
*	*	*	*	*	*	*2\right	*
.	.	.	.	4.c/	To-	2cc\	por-
.	.	.	.	8c/	-li-	.	.
.	.	.	.	2c/	-te	2cc\	-tas
=3	=3	=3	=3	=3	=3	=3	=3
*	*	*	*	*2\right	*	*	*
1r	.	.	.	2g\	por-	4.b-\	Prin-
.	.	.	.	.	.	8b-\	-ci-
.	.	.	.	2g\	-tas	2b-\	-pes
=4	=4	=4	=4	=4	=4	=4	=4
4.F\	To-	.	.	4.f\	Prin-	2a\	ves-
8F\	-li-	.	.	8f\	-ci-	.	.
*2\right	*	*	*	*	*	*	*
2F\	-te	.	.	2f\	-pes	2a\	-tras
=5	=5	=5	=5	=5	=5	=5	=5
2c\	por-	0r	.	4e\	veſ-	2g/	et
.	.	.	.	4e\	-tras	.	.
2c\	-tas	.	.	[2<a\	et	4cc\	e-
.	.	.	.	.	.	4cc\	-le-
=6	=6	=6	=6	=6	=6	=6	=6
4.B-X\	Prin-	.	.	4a\]	.	4.dd\	-va-
.	.	.	.	8g\	e-	.	.
8B-\	-ci-	.	.	8f\	-le-	8dd\	-mi-
2B-\	-pes	.	.	[<2g\	-va-	2dd\	-ni
=7	=7	=7	=7	=7	=7	=7	=7
2A\	Ves-	4.C/	To-	4g\]	.	4cc\	por-
.	.	.	.	8f\	-mi-	4cc\	-tae
.	.	8C/	-li-	8e\	-ni	.	.
4A\	-tras	2C/	-te	[<2f\	por-	4cc\	ae-
4A\	et	.	.	.	.	4cc\	-ter-
=8	=8	=8	=8	=8	=8	=8	=8
!	!	!	!	!	!	!LO:SIC:o:v=custos a	!
4G\	e-	2G/	por-	4f\]	.	1b-\	-na-
4G\	-le-	.	.	8e\L	-tae	.	.
.	.	.	.	8d\J	.	.	.
!	!	!	!	!LO:SIC:o:v=custos e	!	!	!
4c\	-va-	2G/	-tas	[2e\	ae-	.	.
8c\	-mi-	.	.	.	.	.	.
8c\	-ni	.	.	.	.	.	.
!	!	!	!	!LO:LB:g=original	!	!LO:LB:g=original	!
=9	=9	=9	=9	=9	=9	=9	=9
4F\	por-	4.A/	Prin-	4e\]	.	4a\	.
4F\	-tae	.	.	8f\L	-ter-	8b-\L	.
.	.	8A/	-ci-	8e\J	.	8cc\J	.
4B-\	ae-	2A/	-pes	4e\	-na-	2dd\	.
4B-\	-ter-	.	.	8e\L	.	.	.
.	.	.	.	8f\J	.	.	.
=10	=10	=10	=10	=10	=10	=10	=10
4E\	-na-	4G/	ves-	4g\	.	2.cc\	.
8F\L	.	4G/	-tras	4f\	.	.	.
8G\J	.	.	.	.	.	.	.
*	*	*2\right	*	*	*	*	*
!LO:SIC:o:v=custos A	!	!	!	!	!	!	!
[<2A\	.	[<2c\	et	4e\	.	.	.
.	.	.	.	4d\	.	4b-\	.
!LO:LB:g=original	!	!	!	!	!	!	!
=11	=11	=11	=11	=11	=11	=11	=11
4A\]	.	4c\]	.	4c/	.	4a\	.
4G\	.	4B-\	.	8d/L	.	8b-\L	.
.	.	.	.	8e/J	.	8cc\J	.
4F\	.	4A/	e-	[<2f\	.	[<2dd\	.
4E\	.	4G/	-le-	.	.	.	.
=12	=12	=12	=12	=12	=12	=12	=12
!	!	!	!	!	!	!LO:N:xstem:cue	!
4D\	.	4F/	-va-	4f\]	.	4dd\]	.
8E\L	.	8G/	-mi-	4e\	.	4cc\	.
8F\J	.	8A/	-ni	.	.	.	.
[<2G\	.	[2B-X\	por-	4d\	.	4b-\	.
.	.	.	.	4c\	.	4a\	.
=13	=13	=13	=13	=13	=13	=13	=13
4G\]	.	4B-\]	.	2d\	.	2g/	.
4F\	.	4A\	-tae	.	.	.	.
4E\	.	4G/	ae-	[<2e\	.	[<2cc\	.
4D/	.	4F/	-ter-	.	.	.	.
=14	=14	=14	=14	=14	=14	=14	=14
4C/	.	4G/	-na-	4e\]	.	2cc\]	.
4C,/	-les	4G,/	-les	8d\L	.	.	.
.	.	.	.	8e\J	.	.	.
4D\	ae-	4d\	ae-	2f\	.	[<2b-\	.
!	!	!LO:SIC:o:v=custos c	!	!	!	!	!
4E\	-ter-	4d\	-ter-	.	.	.	.
!	!	!LO:LB:g=original	!	!	!	!	!
=15	=15	=15	=15	=15	=15	=15	=15
1F\	-na-	[<1c\	-na-	2c/	.	2b-\]	.
.	.	.	.	2f\	.	2a\	.
=16	=16	=16	=16	=16	=16	=16	=16
2C/	.	1c\_<	.	2e\	.	2g/	.
2F\	.	.	.	[<2f\	.	2a\	.
=17	=17	=17	=17	=17	=17	=17	=17
1C/	.	1c\]	.	4f\]	.	1g\	.
.	.	.	.	8e\L	.	.	.
.	.	.	.	8d\J	.	.	.
.	.	.	.	2e\	.	.	.
=18	=18	=18	=18	=18	=18	=18	=18
2F\	-les	4c,\	-les;	2f\	-les.	2f/	-les
.	.	4c\	et	.	.	.	.
2r	.	4c\	in-	2r	.	2r	.
.	.	4c\	-tro-	.	.	.	.
!	!	!	!	!LO:LB:g=original	!	!	!
=19	=19	=19	=19	=19	=19	=19	=19
0r	.	4A/	-i-	4r	.	00r	.
.	.	4A/	-bit	4f\	et	.	.
.	.	2d\	Rex	4f\	in-	.	.
.	.	.	.	4f\	-tro-	.	.
=20	=20	=20	=20	=20	=20	=20	=20
.	.	2G/	glo-	4d\	-i-	.	.
.	.	.	.	4d\	-bit	.	.
.	.	[<2B-\	.	2g\	Rex	.	.
=21	=21	=21	=21	=21	=21	=21	=21
1r	.	2B-\]	.	2c/	glo-	.	.
.	.	2A\	.	[<2f\	.	.	.
=22	=22	=22	=22	=22	=22	=22	=22
4r	.	2.G/	.	4f\]	.	.	.
4C/	et	.	.	4f\	ri-	.	.
4C/	in-	.	.	2e\	-ae	.	.
!	!	!	!	!	!	!LO:SIC:o:v=custos f	!
4C/	-tro-	4G/	-ri-	.	.	.	.
!	!	!	!	!	!	!LO:LB:g=original	!
=23	=23	=23	=23	=23	=23	=23	=23
4AA/	-i-	2c\	-ae	4f\	glo-	4r	.
4AA/	-bit	.	.	4g\	.	4f/	et
2D\	Rex	2r	.	[<2a\	.	4f/	in-
.	.	.	.	.	.	4f/	-tro-
=24	=24	=24	=24	=24	=24	=24	=24
2BB-X/	glo-	2r	.	4a\]	.	4d/	-i-
.	.	.	.	(8g\L	ri-	4d/	-bit
.	.	.	.	8f\J)	.	.	.
!LO:SIC:o:v=custos B	!	!	!	!	!	!	!
[<2B-\	.	4r	.	2g\	-ae	2g/	Rex
.	.	4d\	et	.	.	.	.
!LO:LB:g=original	!	!	!	!	!	!	!
=25	=25	=25	=25	=25	=25	=25	=25
2B-X\]	.	4e\	in-	4r	.	2c/	glo-
.	.	4e\	-tro-	4g\	et	.	.
2A\	.	4c\	-i-	4a\	in-	[2f/	.
.	.	4c\	-bit	4a\	-tro-	.	.
=26	=26	=26	=26	=26	=26	=26	=26
2.G\	.	2d\	Rex	4d\	-i-	2f/]	.
.	.	.	.	4d\	-bit	.	.
.	.	[<2B-X\	glo-	2g\	Rex	2e/	.
4G\	-ri-	.	.	.	.	.	.
=27	=27	=27	=27	=27	=27	=27	=27
2F\	-ae	2B-\]	.	2c/	glo-	4f/	.
.	.	.	.	.	.	4g/	.
!	!	!LO:SIC:o:v=custos G	!	!	!	!	!
2F\	Rex	2A/	.	2f\	.	4a\	.
.	.	.	.	.	.	4bn\	.
!	!	!LO:LB:g=original	!	!	!	!	!
=28	=28	=28	=28	=28	=28	=28	=28
1En\	glo-	2G/	.	1g\	.	4cc\	.
.	.	.	.	.	.	4g\	.
.	.	2c\	.	.	.	[<2cc\	.
=29	=29	=29	=29	=29	=29	=29	=29
2.D/	.	2.d\	.	2.f\	.	2cc\]	.
.	.	.	.	.	.	2bn\	-ri-
4D/	-ri-	4d\	-ri-	4f\	-ri-	.	.
=30	=30	=30	=30	=30-	=30	=30	=30
1C/	-ae	1G/	-ae	1e\	-ae	2cc,\	-ae
.	.	.	.	.	.	2cc\	et
!	!	!	!	!LO:LB:g=original	!	!	!
=31	=31	=31	=31	=31	=31	=31	=31
1r	.	0r	.	2r	.	2a\	in-
.	.	.	.	2f\	et	2a\	-tro-
=32	=32	=32	=32	=32	=32	=32	=32
4r	.	.	.	2d\	in-	4a\	-i-
4D/	et	.	.	.	.	4a\	-bit
!	!	!	!	!	!	!LO:SIC:o:v=custos dd	!
4D/	in-	.	.	2d\	-tro-	[<2dd\	Rex
4D/	-tro-	.	.	.	.	.	.
!	!	!	!	!	!	!LO:LB:g=original	!
=33	=33	=33	=33	=33	=33	=33	=33
2BB-X/	-i-	4r	.	4d\	-i-	2dd\]	.
.	.	4d\	et	4d\	-bit	.	.
2BB-/	-bit	4d\	in-	2g\	Rex	[<2b-\	glo-
.	.	4d\	-tro-	.	.	.	.
=34	=34	=34	=34	=34	=34	=34	=34
2GG/	Rex	2d\	-i-	1g\	glo-	2b-\]	.
[2C/	glo-	2e\	-bit	.	.	2cc\	.
=35	=35	=35	=35	=35-	=35	=35	=35
2C/]	.	1c\	Rex	2e\	.	2.a\	.
4AA/	.	.	.	2f\	.	.	.
4AA/	-ri-	.	.	.	.	4a\	-ri-
=36	=36	=36	=36	=36	=36	=36	=36
4D,/	-ae	4.d\	glo-	2.f\	.	4a,\	-ae
4D/	et	.	.	.	.	4dd\	et
.	.	8d\	-ri-	.	.	.	.
4D/	in-	2A/	-ae	.	.	4dd\	in-
4D/	-tro-	.	.	4f\	-ri-	4dd\	-tro-
!LO:LB:g=original	!	!	!	!	!	!	!
=37	=37	=37	=37	=37	=37	=37	=37
2G\	-i-	2r	.	4d,\	-ae	4b-X\	-i-
.	.	.	.	4g\	et	4b-\	-bit
2G\	-bit	4r	.	4g\	in-	4r	.
.	.	4d\	et	4g\	-tro-	4b-\	et
=38	=38	=38	=38	=38	=38	=38	=38
4C,/	Rex	4e\	in-	4e\	-i-	4g/	in-
4c\	et	4e\	-tro-	4e\	-bit	4g/	-tro-
4c\	in-	4c\	-i-	2e\	Rex	4g/	-i-
4c\	-tro-	4c\	-bit	.	.	4g/	-bit
=39	=39	=39	=39	=39	=39	=39	=39
2A\	-i-	1c\	Rex	4f\	glo-	1a\	Rex
.	.	.	.	4c/	.	.	.
2A\	-bit	.	.	[<2f\	.	.	.
=40	=40	=40	=40	=40	=40	=40	=40
(4B-X\	Rex	4d\	glo-	2f\]	.	(4dd\	glo-
4A\)	.	4A\	.	.	.	4cc\)	.
4.G\	glo-	4.B-\	.	4.e\	.	4.b-X\	.
8G\	-ri-	8B-\	-ri-	8e\	-ri-	8b-\	-ri-
=41	=41	=41	=41	=41	=41	=41	=41
4F,\	-ae	2.F/	-ae	4f,\	-ae	4a,\	-ae
4F\	et	.	.	4c/	Rex	4a\	et
4F\	in-	.	.	[<2f\	glo-	4a\	in-
!	!	!	!	!	!	!LO:SIC:o:v=custos b	!
4F\	-tro-	4A/	Rex	.	.	4a\	-tro-
!	!	!LO:LB:g=original	!	!	!	!LO:LB:g=original	!
=42	=42	=42	=42	=42	=42	=42	=42
2G\	-i-	2d\	glo-	2f\]	.	2b-\	-i-
!	!	!	!	!LO:SIC:o:v=custose	!	!	!
2A\	-bit	2c\	.	[<2e-X\	.	(4a\	-bit
.	.	.	.	.	.	4g\)	.
!	!	!	!	!LO:LB:g=original	!	!	!
=43	=43	=43	=43	=43	=43	=43	=43
2B-,\	Rex	2.B-\	.	2e-X\]	.	2f/	Rex
4B-\	in-	.	.	2d\	.	[<2b-\	glo-
4B-\	-tro-	4B-\	-ri-	.	.	.	.
=44	=44	=44	=44	=44	=44	=44	=44
2F\	-i-	2c,\	-ae	4.c/	.	2b-\]	.
.	.	.	.	8c/	-ri-	.	.
2F\	-bit	4f\	in-	2c/	-ae	[2a\	.
.	.	4f\	-tro-	.	.	.	.
=45	=45	=45	=45	=45	=45	=45	=45
1G\	Rex	4d\	-i-	(2.d\	Rex	2a\]	.
.	.	4d\	-bit	.	.	.	.
.	.	2d\	Rex	.	.	2g/	.
.	.	.	.	4g\)	.	.	.
=46	=46	=46	=46	=46	=46	=46	=46
(4D\	glo-	4d\	glo-	4f\	glo-	4a\	.
4E\	.	4c#X\	.	4en\	.	4g\	.
4F\	.	4d\	.	4a\	.	4a\	.
4G\)	.	4e\	.	8g\L	.	4b-\	.
.	.	.	.	8f\J	.	.	.
=47	=47	=47	=47	=47	=47	=47	=47
4A\	.	4c#X\	.	4en\	.	2a\	.
2B-\	.	2d\	.	2g\	.	.	.
.	.	.	.	.	.	2dd\	.
!LO:SIC:o:v=custos A	!	!	!	!	!	!	!
4G\	.	4B-X\	.	4f\	.	.	.
!LO:LB:g=original	!	!	!	!	!	!	!
=48	=48	=48	=48	=48	=48	=48	=48
4A\	.	2.A/	.	4e\	.	4cc#X\	.
4D/	.	.	.	4f\	.	2dd\	.
4.A\	.	.	.	4.e\	.	.	.
.	.	4A/	-ri-	.	.	4cc#X\	-ri-
8A\	-ri-	.	.	8e\	-ri-	.	.
=49	=49	=49	=49	=49	=49	=49	=49
4D,/	-ae	4A,/	-ae	4d\	-ae	4dd,\	-ae
(2AA/	Rex	2A\	glo-	2.f\	glo-	2ccn\	glo-
4BB-X/)	.	4d\	.	.	.	8b-X\L	.
.	.	.	.	.	.	8a\J	.
=50	=50	=50	=50	=50	=50	=50	=50
4C/	glo-	2.c\	.	4e\	.	4g\	.
4F\	.	.	.	2f\	.	4a\	.
4.C/	.	.	.	.	.	4.g/	.
.	.	4c\	-ri-	4e\|	-ri-	.	.
8C/	-ri-	.	.	.	.	8g/	-ri-
=51	=51	=51	=51	=51	=51	=51	=51
4F,\	-ae	4c,\	-ae	4f,\	-ae	4f,/	-ae
2F\	Rex	2A/	glo-	2.c/	Rex	2f/	Rex
!	!	!LO:SIC:o:v=custos d	!	!	!	!LO:SIC:o:v=custos a	!
4E\	.	4G/	.	.	.	4g/	.
!	!	!LO:LB:g=original	!	!	!	!LO:LB:g=original	!
=52	=52	=52	=52	=52	=52	=52	=52
4D/	glo-	2d\	.	2f\	glo-	4a\	glo-
4BB-/	.	.	.	.	.	4b-\	.
4.C/	.	4.c\	.	4.e\	.	4.g/	.
8C/	-ri-	8c\	-ri-	8e\	-ri-	8g/	-ri-
=53	=53	=53	=53	=53-	=53	=53	=53
!LO:TX:t=P:problem:podwójna kreska pseudotaktowa	!	!LO:TX:t=P:problem:podwójna kreska pseudotaktowa	!	!LO:TX:t=P:problem:podwójna kreska pseudotaktowa	!	!LO:TX:t=P:problem:podwójna kreska pseudotaktowa	!
1FF/;	-ae	1c\	-ae.	1f\	-ae.	1a\	-ae.
!	!	!	!	!LO:LB:g=original	!	!	!
=55||	=55||	=55||	=55||	=55||	=55||	=55||	=55||
1r	.	0r	.	1r	.	2r	.
.	.	.	.	.	.	2cc\	Quis
=56	=56	=56	=56	=56	=56	=56	=56
2F\	Quis	.	.	2r	.	2a\	as-
2D\	as-	.	.	2f\	Quis	2dd\	-cen-
=57	=57	=57	=57	=57	=57	=57-	=57
2G\	-cen-	2r	.	2d\	as-	2bn,\	-det
2E\	-det	2c\	Quis	2g\	-cen-	2ee\	quis
=58	=58	=58	=58	=58	=58	=58	=58
2A\	quis	2A\	as-	2e,\	-det	2cc\	as-
!LO:SIC:o:v=custos B-	!	!	!	!	!	!	!
2F\	a-	2d\	-cen-	2a\	Quis	2ff\	-cen-
!LO:LB:g=original	!	!	!	!	!	!	!
=59	=59	=59	=59	=59	=59	=59	=59
2B-\	-scen-	2B-\	-det	2f\	as-	4dd\	-det
.	.	.	.	.	.	4dd\	in
4G\	-det	2d\	in	2b-X\	-cen-	4gg\	mon-
4G\	in	.	.	.	.	4gg\	.
=60	=60	=60	=60	=60	=60	=60	=60
2c\	mon-	2c\	mon-	4b-,\	-det	(1ee\	-tem
.	.	.	.	4b-\	in	.	.
2c\	-tem	2c\	-tem	4a\	mon-	.	.
.	.	.	.	4a\	.	.	.
=61	=61	=61	=61	=61	=61	=61	=61
1B-X\	Do-	2.d\	Do-	2a\	-tem	1dd\)	.
.	.	.	.	[<2g\	Do-	.	.
.	.	4d\	-mi-	.	.	.	.
=62-	=62	=62	=62	=62	=62	=62	=62
2.A\	.	2A\	-ni	2g\]	.	2.ccT\	-Do-
.	.	2r	.	4.f#X\	.	.	.
4A\	-mi-	.	.	.	.	4cc\	-mi-
.	.	.	.	8f#\	-mi-	.	.
=63	=63	=63	=63	=63	=63	=63	=63
2G,\	-ni	2d\	quis	1g\,	-ni	2bn\	-ni,.
!	!	!	!	!	!	!LO:SIC:o:v=custos cc	!
2G\	quis	4Bn\	sta-	.	.	2r	.
.	.	4B\	-bit	.	.	.	.
!	!	!	!	!	!	!LO:PB:g=original	!
=64	=64	=64	=64	=64	=64	=64	=64
4E\	sta-	2e\	in	2g\	quis	2r	.
4E\	-bit	.	.	.	.	.	.
2A\	in	4c\	lo-	4e\	sta-	[<2cc\	quis
.	.	4c\	-co	4e\	-bit	.	.
=65	=65	=65	=65	=65	=65	=65	=65
4F\	lo-	4A/	san-	2a\	in	2cc\]	.
4F\	-co	4A/	-cto	.	.	.	.
!	!	!LO:SIC:o:v=custos Bn	!	!	!	!	!
4D/	san-	2d\	e-	4f\	lo-	4a\	sta-
!	!	!	!	!LO:SIC:o:v=custos d	!	!	!
4D/	-cto	.	.	4f\	-co	4a\	-bit
!	!	!LO:LB:g=original	!	!LO:LB:g=original	!	!	!
=66	=66	=66	=66	=66	=66	=66	=66
*	*ij	*	*	*	*	*	*
4G\	lo-	2Bn\	.	4d\	san-	2g/	in
4G\	-co	.	.	4d,\	-cto	.	.
4E\	san-	2G/	-jus	2g\	in	4cc\	lo-
4E\	-cto	.	.	.	.	4cc\	-co
*	*Xij	*	*	*	*	*	*
=67	=67	=67	=67	=67	=67	=67	=67
2.C/	e-	2r	.	4e\	lo-	1g\	san-
.	.	.	.	4e\	-co	.	.
.	.	4c\	lo-	4g\	san-	.	.
4D/	.	4c\	-co	4f\	-cto	.	.
=68	=68	=68	=68	=68	=68	=68-	=68
2.E\	.	4c\	san-	1e\	E-	1g\	-cto
.	.	4c\	-cto	.	.	.	.
.	.	[<2c\	E-	.	.	.	.
4F\	.	.	.	.	.	.	.
=69	=69	=69	=69	=69-	=69	=69-	=69
1G\	.	2c\]	.	1d\	.	1g\	-e-
.	.	2Bn\	.	.	.	.	.
=70	=70	=70	=70	=70-	=70	=70	=70
!LO:TX:t=P:problem:podwójna kreska pseudotaktowa	!	!LO:TX:t=P:problem:podwójna kreska pseudotaktowa	!	!	!	!	!
1C/	-jus.	1c\	-jus	1e\,	-jus.	1g\	-jus.
!LO:LB:g=original	!	!	!	!	!	!	!
=71||	=71	=71||	=71	=71-	=71	=71-	=71
*M3/2	*	*M3/2	*	*M3/2	*	*M3/2	*
2.F\	In-	2.c\	In-	2.f\	In-	2.a\	In-
4F\	-no-	4c\	-no-	4f\	-no-	4a\	-no-
2D/	-cens	2d\	-cens	2f\	-cens	2bn\	-cens
=72	=72	=72	=72	=72	=72	=72	=72
4E\	ma-	4Bn\	ma-	4e\	ma-	4g#X/	ma-
4E\	-ni-	4B\	-ni-	4e\	-ni-	4g#/	-ni-
2E\	-bus	2B\	-bus	2e\	-bus	2g#X/	-bus
2E\	et	2e\	et	2e\	et	2g#/	et
=73	=73	=73	=73	=73	=73	=73	=73
1F\	mun-	1c\	mun-	1a\	mun-	1a\	mun-
[2D/	-do	[<2d\	-do	[<2f\	-do	[<2a\	-do
=74	=74	=74	=74	=74	=74	=74	=74
2D\]	.	2d\]	.	2f\]	.	2a,\]	.
!	!	!LO:SIC:o:v=custos A	!	!	!	!	!
1E\	cor-	1Bn\	cor-	1e\	cor-	(2a\	cor-
!	!	!	!	!	!	!LO:SIC:o:v=custos a	!
.	.	.	.	.	.	2g#X\)	.
!	!	!LO:LB:g=original	!	!	!	!LO:LB:g=original	!
=75	=75	=75	=75	=75	=75	=75	=75
2AA,/	-de	2A\	-de	2e,\	-de	2a\	-de
2D\	mun-	2f\	mun-	2f\	mun-	2a\	mun-
2AA/	-do	2c\	-do	2f\	-do	2cc\	-do
=76	=76	=76	=76	=76	=76	=76	=76
2BB-X/	cor-	2d\	Cor-	1f\	cor-	1.g\	Cor-
1C/	.	1c\	.	.	.	.	.
.	.	.	.	2e\	.	.	.
=77	=77	=77	=77	=77	=77	=77	=77
1.FF/	-de.	1.c\	-de.	1.f\	-de.	1.a\	-de
==	==	==	==	==	==	==	==
*-	*-	*-	*-	*-	*-	*-	*-
!!!system-decoration: [(s1,s2,s3,s4)]
!!!RDF**kern: > = above
!!!RDF**kern: < = below
!!!EED: Leszek Kubiak
!!!EST: 2021-03-17
!!!ENC: Tomasz Grochalski
!!!END: 2021-02-25
!!!RDF**kern: | = vertical stroke
